symbols/web/phone_callback/materialsymbolsoutlined/phone_callback_wght600fill1_40px.svg

<svg xmlns="http://www.w3.org/2000/svg" height="40" width="40"><path d="M21.375 18.042V7.833H24.5v4.959l9.208-9.209 2.167 2.167-9.167 9.208h4.917v3.084Zm11.833 17.583q-5.333 0-10.5-2.521-5.166-2.521-9.25-6.604-4.083-4.083-6.604-9.25T4.333 6.792q0-1.042.709-1.75.708-.709 1.75-.709h6.166q1 0 1.688.563.687.562.896 1.562l1.125 5.042q.166.917-.042 1.604-.208.688-.75 1.188l-4.25 4q2 3.25 4.5 5.729t5.583 4.229l4.084-4.083q.625-.625 1.396-.855.77-.229 1.604-.062l4.708 1.083q1 .25 1.583.938.584.687.584 1.729v6.125q0 1.042-.709 1.771-.708.729-1.75.729Z"/></svg>

<svg xmlns="http://www.w3.org/2000/svg" height="40" width="40"><path d="M21.375 18.042V7.833H24.5V12.792L33.708 3.583L35.875 5.75L26.708 14.958H31.625V18.042ZM33.208 35.625Q27.875 35.625 22.708 33.104Q17.542 30.583 13.458 26.5Q9.375 22.417 6.854 17.25Q4.333 12.083 4.333 6.792Q4.333 5.75 5.042 5.042Q5.75 4.333 6.792 4.333H12.958Q13.958 4.333 14.646 4.896Q15.333 5.458 15.542 6.458L16.667 11.5Q16.833 12.417 16.625 13.104Q16.417 13.792 15.875 14.292L11.625 18.292Q13.625 21.542 16.125 24.021Q18.625 26.5 21.708 28.25L25.792 24.167Q26.417 23.542 27.188 23.312Q27.958 23.083 28.792 23.25L33.5 24.333Q34.5 24.583 35.083 25.271Q35.667 25.958 35.667 27V33.125Q35.667 34.167 34.958 34.896Q34.25 35.625 33.208 35.625Z"/></svg>
